build/documents/DocOperationsOutline.svg

<svg xmlns="http://www.w3.org/2000/svg" fill="none" viewBox="0 0 24 24" focusable="false"><path d="M0 0H24V24H0z"/><path fill="#74767B" fill-rule="evenodd" d="M20.0001 6C20.0001 4.34315 18.6569 3 17.0001 3L7.00684 3C5.34998 3 4.00684 4.34315 4.00684 6L4.00684 18C4.00684 19.6569 5.34998 21 7.00684 21L17.0001 21C18.6569 21 20.0001 19.6569 20.0001 18L20.0001 6ZM17.0001 4.3L7.00684 4.3C6.06795 4.3 5.30684 5.06112 5.30684 6L5.30684 18C5.30684 18.9389 6.06795 19.7 7.00684 19.7L17.0001 19.7C17.939 19.7 18.7001 18.9389 18.7001 18L18.7001 6C18.7001 5.06112 17.939 4.3 17.0001 4.3ZM10.9546 10.7159C10.7746 10.7159 10.6046 10.6459 10.4746 10.5059C10.2346 10.2359 10.2546 9.82585 10.5146 9.58585L11.3985 8.65017L10.6378 8.65017C9.33991 8.65017 8.28778 9.7023 8.28778 11.0002L8.28778 11.35C8.28778 11.709 7.99676 12 7.63778 12C7.27879 12 6.98778 11.709 6.98778 11.35L6.98778 11.0002C6.98778 8.98433 8.62194 7.35017 10.6378 7.35017C10.9174 7.34374 10.9701 7.3443 11.0864 7.34554C11.1518 7.34623 11.2373 7.34714 11.3946 7.34714L10.5146 6.44605C10.2446 6.20605 10.2346 5.79605 10.4746 5.52605C10.7146 5.26605 11.1246 5.24605 11.3946 5.48605L13.4341 7.47714C13.7441 7.75714 13.7441 8.23714 13.4341 8.51714L11.3946 10.5459C11.2646 10.6659 11.1146 10.7159 10.9546 10.7159ZM13.5191 13.4923C13.3891 13.3523 13.2191 13.2823 13.0391 13.2823C12.8791 13.2823 12.7291 13.3323 12.5991 13.4523L10.5597 15.481C10.2497 15.761 10.2497 16.241 10.5597 16.521L12.5991 18.5121C12.8691 18.7521 13.2791 18.7321 13.5191 18.4721C13.7591 18.2021 13.7491 17.7921 13.4791 17.5521L12.5991 16.651C12.7564 16.651 12.8419 16.6519 12.9073 16.6526C13.0236 16.6538 13.0763 16.6544 13.356 16.6479C15.3718 16.6479 17.006 15.0138 17.006 12.9979L17.006 12.6481C17.006 12.2891 16.715 11.9981 16.356 11.9981C15.997 11.9981 15.706 12.2891 15.706 12.6481L15.706 12.9979C15.706 14.2958 14.6538 15.3479 13.356 15.3479L12.5952 15.3479L13.4791 14.4123C13.7391 14.1723 13.7591 13.7623 13.5191 13.4923Z"/></svg>

<svg xmlns="http://www.w3.org/2000/svg" fill="none" viewBox="0 0 24 24" focusable="false"><path fill="#74767B" fill-rule="evenodd" d="M20 6c0-1.66-1.35-3-3-3H7C5.35 3 4 4.34 4 6v12c0 1.65 1.35 3 3 3h10c1.65 0 3-1.35 3-3zm-3-1.71H7c-.94 0-1.7.77-1.7 1.71v12c0 .93.76 1.7 1.7 1.7h10c.93 0 1.7-.77 1.7-1.7V6c0-.94-.77-1.71-1.7-1.71m-6.53 6.21c.13.14.3.21.48.21.16 0 .31-.05.44-.17l2.04-2.03c.31-.28.31-.76 0-1.04l-2.04-1.99a.66.66 0 0 0-.92.04.65.65 0 0 0 .04.92l.88.9h-.31c-.11 0-.17 0-.45.01-2.01 0-3.65 1.63-3.65 3.65v.35c0 .35.29.65.65.65s.65-.3.65-.65V11c0-1.3 1.05-2.35 2.35-2.35h.76l-.88.93c-.26.24-.28.65-.04.92m3.04 2.99a.65.65 0 0 0-.48-.21c-.16 0-.31.05-.44.17l-2.04 2.03c-.31.28-.31.76 0 1.04l2.04 1.99c.27.24.68.22.92-.04a.65.65 0 0 0-.04-.92l-.88-.9h.31c.12 0 .17 0 .45-.01 2.02 0 3.65-1.63 3.65-3.65v-.35c0-.36-.29-.65-.65-.65s-.65.29-.65.65v.35c0 1.3-1.05 2.35-2.35 2.35h-.76l.88-.93c.26-.24.28-.65.04-.92"/></svg>
